assets/imgs/cir_shuffle.svg

<svg width="50" height="50" viewBox="0 0 50 50" fill="none" xmlns="http://www.w3.org/2000/svg">
<g clip-path="url(#clip0_249_145)">
<circle cx="25" cy="25" r="24" fill="white" stroke="#4B4B4B" stroke-width="2"/>
<path d="M37.6914 14.3239C37.3479 12.9434 23.4474 13.9341 23.4281 13.3191C23.4088 12.7041 23.4281 12.0591 23.4281 10.3047C23.4281 8.55019 12 14.8585 12 16.8681C12 18.8776 23.4281 26.1834 23.4281 23.4237C23.4281 20.664 23.4088 21.759 23.4281 20.8185C23.4474 19.878 37.2173 21.759 37.6914 20.1581C38.1656 18.5571 38.035 15.7044 37.6914 14.3239Z" fill="white" stroke="#4B4B4B" stroke-width="2"/>
<path d="M12.3086 35.6761C12.6521 37.0566 26.5526 36.0659 26.5719 36.6809C26.5912 37.2959 26.5719 37.9409 26.5719 39.6953C26.5719 41.4498 38 35.1415 38 33.1319C38 31.1224 26.5719 23.8166 26.5719 26.5763C26.5719 29.336 26.5912 28.241 26.5719 29.1815C26.5526 30.122 12.7827 28.241 12.3086 29.8419C11.8344 31.4429 11.965 34.2956 12.3086 35.6761Z" fill="white" stroke="#4B4B4B" stroke-width="2"/>
</g>
<defs>
<clipPath id="clip0_249_145">
<rect width="50" height="50" fill="white"/>
</clipPath>
</defs>
</svg>

<svg width="50" height="50" fill="none" xmlns="http://www.w3.org/2000/svg"><g clip-path="url(#a)" fill="#fff" stroke="#4B4B4B" stroke-width="2"><circle cx="25" cy="25" r="24"/><path d="M37.691 14.324c-.343-1.38-14.244-.39-14.263-1.005-.02-.615 0-1.26 0-3.014C23.428 8.55 12 14.858 12 16.868s11.428 9.315 11.428 6.556c0-2.76-.02-1.665 0-2.605.02-.941 13.79.94 14.263-.66.475-1.602.344-4.455 0-5.835zM12.309 35.676c.343 1.38 14.244.39 14.263 1.005.02.615 0 1.26 0 3.014C26.572 41.45 38 35.142 38 33.132s-11.428-9.315-11.428-6.556c0 2.76.02 1.665 0 2.605-.02.941-13.79-.94-14.263.66-.475 1.602-.344 4.455 0 5.835z"/></g><defs><clipPath id="a"><path fill="#fff" d="M0 0h50v50H0z"/></clipPath></defs></svg>
